icons/1password.svg

<svg width="16" height="16" viewBox="0 0 16 16" fill="none" xmlns="http://www.w3.org/2000/svg">
<g clip-path="url(#clip0_1750_1267)">
<path fill-rule="evenodd" clip-rule="evenodd" d="M0 8C0 12.4184 3.58172 16 8 16C12.4183 16 16 12.4184 16 8C16 3.58172 12.4183 0 8 0C3.58172 0 0 3.58172 0 8ZM8 1.93103C11.3522 1.93103 14.069 4.64867 14.069 8C14.069 11.3514 11.3523 14.069 8 14.069C4.68126 14.069 1.98543 11.4055 1.93184 8.10035L1.93103 8C1.93103 4.64867 4.64778 1.93103 8 1.93103ZM12.5517 8.03062C12.5517 5.48626 10.5138 3.44835 8.0305 3.44835C5.48613 3.44835 3.44823 5.48626 3.44823 8.03062C3.44823 10.514 5.48613 12.5518 8.0305 12.5518C10.5138 12.5518 12.5517 10.514 12.5517 8.03062ZM6.89658 5.08902C6.89658 4.86853 7.05407 4.68979 7.24834 4.68979H8.75171C8.94599 4.68979 9.10348 4.86853 9.10348 5.08902L9.10349 8.17968C9.10349 8.25016 9.07878 8.31775 9.0348 8.36758L8.81495 8.6167C8.72337 8.72064 8.72336 8.89012 8.81494 8.99406L9.03479 9.24357C9.07877 9.29348 9.10348 9.36118 9.10348 9.43177V10.9095V10.9113C9.10348 11.1317 8.94599 11.3105 8.75171 11.3105H7.24834C7.05407 11.3105 6.89658 11.1317 6.89658 10.9113L6.89659 10.9067V7.82061C6.89659 7.75014 6.9213 7.68255 6.96528 7.63271L7.18513 7.38359C7.27671 7.27965 7.2767 7.11016 7.18512 7.00622L6.96527 6.75671C6.92129 6.70679 6.89658 6.6391 6.89658 6.56851V5.08902Z" fill="#FF00FF"/>
</g>
<defs>
<clipPath id="clip0_1750_1267">
<rect width="16" height="16" fill="white"/>
</clipPath>
</defs>
</svg>

<svg width="16" height="16" fill="none" xmlns="http://www.w3.org/2000/svg"><g clip-path="url(#a)"><path fill-rule="evenodd" clip-rule="evenodd" d="M0 8a8 8 0 1 0 16 0A8 8 0 0 0 0 8zm8-6.069a6.069 6.069 0 1 1-6.068 6.17L1.93 8A6.069 6.069 0 0 1 8 1.931zm4.552 6.1c0-2.545-2.038-4.583-4.521-4.583a4.565 4.565 0 0 0-4.583 4.583c0 2.483 2.038 4.52 4.582 4.52 2.484 0 4.522-2.037 4.522-4.52zM6.897 5.089c0-.22.157-.4.351-.4h1.504c.194 0 .351.18.351.4v3.09c0 .071-.024.139-.068.189l-.22.249a.293.293 0 0 0 0 .377l.22.25c.044.05.068.117.068.188v1.479c0 .22-.157.4-.351.4H7.248c-.194 0-.351-.18-.351-.4v-3.09c0-.07.024-.138.068-.188l.22-.25a.294.294 0 0 0 0-.377l-.22-.25a.285.285 0 0 1-.068-.187v-1.48z" fill="#F0F"/></g><defs><clipPath id="a"><path fill="#fff" d="M0 0h16v16H0z"/></clipPath></defs></svg>
